assets/icons/qvision/set_meal.svg

<svg xmlns="http://www.w3.org/2000/svg" enable-background="new 0 0 24 24" height="24" viewBox="0 0 24 24" width="24"><rect fill="none" height="24" width="24"/><path d="M21.05,17.56L3.08,18.5L3,17l17.98-0.94L21.05,17.56z M21,19.48H3v1.5h18V19.48z M22,5v7c0,1.1-0.9,2-2,2H4 c-1.1,0-2-0.9-2-2V5c0-1.1,0.9-2,2-2h16C21.1,3,22,3.9,22,5z M20,6c-1.68,0-3.04,0.98-3.21,2.23C16.15,7.5,14.06,5.5,10.25,5.5 c-4.67,0-6.75,3-6.75,3s2.08,3,6.75,3c3.81,0,5.9-2,6.54-2.73C16.96,10.02,18.32,11,20,11V6z"/></svg>

<svg width="24" height="24" viewBox="0 0 24 24" fill="none" xmlns="http://www.w3.org/2000/svg">
<g clip-path="url(#clip0_147_5625)">
<path d="M21.05 17.56L3.08 18.5L3 17L20.98 16.06L21.05 17.56ZM21 19.48H3V20.98H21V19.48ZM22 5V12C22 13.1 21.1 14 20 14H4C2.9 14 2 13.1 2 12V5C2 3.9 2.9 3 4 3H20C21.1 3 22 3.9 22 5ZM20 6C18.32 6 16.96 6.98 16.79 8.23C16.15 7.5 14.06 5.5 10.25 5.5C5.58 5.5 3.5 8.5 3.5 8.5C3.5 8.5 5.58 11.5 10.25 11.5C14.06 11.5 16.15 9.5 16.79 8.77C16.96 10.02 18.32 11 20 11V6Z" fill="#323232"/>
</g>
<defs>
<clipPath id="clip0_147_5625">
<rect width="24" height="24" fill="white"/>
</clipPath>
</defs>
</svg>
